X:1
T:Hosanna! Hosanna!
T:Charles Hutchinson Gabriel
T:Hosanna! Hosanna!
T:Public Domain
T:Public Domain
T:Public Domain
C:Charles Hutchinson Gabriel
Z:Public Domain
%%score ( 1 2 ) ( 3 4 )
L:1/8
M:4/4
K:Ab
V:1 treble 
V:2 treble 
V:3 bass 
V:4 bass 
V:1
 [CE] | [Ec]2 [Ec]2 [CA]3 [EA] | [FA]2 [DA]2 [CE]3 [CE] | [EA]2 [EB]2 [Ec]2 [Ec]2 | %4
w: 1.~To|God our King, who|rules a- bove, We|bring our trib- ute|
w: 2.~Let|mount- ains lift their|heads of stone, And|join the seas in|
w: 3.~Let|sons of men, re-|deemed by blood, Of|the In- car- nate|
w: 4.~Let|things on earth, with|things a- bove, Join|in the an- them|
 [Ed]2 [Ec]2 [EB]3 E | [Ec]2 [Ec]2 [CA]3 [EA] | [FA]2 [DA]2 [CE]3 [CE] | %7
w: and our love, And|ly bow be- fore|His throne With an-|
w: swell- ing tone, To|cho back the song|we sing Of glo-|
w: Son of God Join|a- bove who sweep|the lyre, And all|
w: of His love, Till|and sea, and star-|ry sky, U- nite|
 [B,=D]2 [DF]2 [DB]2 [DF]2 | [EG]2 [=DA]2 [DB]3 [Ec] | [Ed]2 [Ed]2 [Ec]2 [Ec]2 | %10
w: gel hosts, whose sweet-|est tone Is heard|in song of him|
w: ry, glo- ry to|our King Who saves|us by His pre-|
w: the bright an- gel-|ic choir Who day|and night un- wear-|
w: as one to make|re- ply With blood-|washed hosts, be- fore|
 [EB]2 [E=A]2 [EB]2 [Ee]2 | [F=d]3 [Ac] [GB]>[FA] [EG]>[=DF] | E6 z3/2 ||"^Refrain" [Ec]/ | %14
w: who sings: Ho- san-|na to the King of kings!|||
w: cious blood, Oh, sing|ho- san- na to our God!|Ho-|na,|
w: ied sing Ho- san-|na, to our glor- ious King!|||
w: the throne, That Christ|is King, and He a- lone.|||
 ([Ec]3 [DB]/) [CA]3 [EAe]/ x/ | (e3 d/) [Ec]3 [Ec]/ x/ | [Gd]>[^Fc] [Gd]>[Fc] (G>F G>)[Ed] | %17
w: |||
w: ho- * san- na!|Ho- * san- na|our God! Ho- san- na * * to|
w: |||
w: |||
 [Ec]>[=D=B] [Ec]>[F=d] | [Ec]>[_D_B] [CA]>[Ec] | ([Ec]3 [DB]/) [CA]3 [EAe]/ x/ | %20
w: |||
w: might- y God! Ho-|san- na, ho- san-|na! * Ho- san-|
w: |||
w: |||
 (e3 d/) [Ec]3 [Ec]/ x/ | [FB]>[FB] [Fc][Fd] [Ec]2 [EB]2 | [EA]6 z |] %23
w: |||
w: na * to our|and King! * * * *||
w: |||
w: |||
V:2
 x | x8 | x8 | x8 | x7 E | x8 | x8 | x8 | x8 | x8 | x8 | x8 | E6 x3/2 || x/ | x15/2 | [EA]4 x7/2 | %16
w: ||||glad-||||||||||||
w: ||||e-||||||||san-|||to|
w: ||||hosts||||||||||||
w: ||||earth||||||||||||
 x4 d3 x | x4 | x4 | x15/2 | [EA]4 x7/2 | x8 | x7 |] %23
w: |||||||
w: the||||Lord|||
w: |||||||
w: |||||||
V:3
 [A,,A,] | [A,,A,]2 [A,,A,]2 [A,,A,]3 [C,A,] | (D,E,)(F,G,) A,3 A, | %3
w: ~|~ ~ ~ ~|~ * ~ * ~ ~|
 [C,A,]2 [B,,G,]2 [A,,A,]2 [A,,A,]2 | [G,,B,]2 [A,,A,]2 [E,G,]3 [E,G,] | %5
w: ~ ~ ~ ~|~ ~ ~ ~|
 [A,,A,]2 [A,,A,]2 [A,,A,]3 [C,A,] | ([D,A,]E,)(F,G,) A,3 [A,,A,] | %7
w: ~ ~ ~ ~|~ * ~ * ~ ~|
 [B,,A,]2 [B,,A,]2 [B,,F,]2 [A,B,]2 | [G,B,]2 [F,B,]2 [E,G,]3 [E,A,] | %9
w: ~ ~ ~ ~|~ ~ ~ ~|
 [E,B,]2 [E,B,]2 [E,A,]2 [E,A,]2 | [E,G,]2 [E,^F,]2 [E,G,]2 [G,B,]2 | %11
w: ~ ~ ~ ~|~ ~ ~ ~|
 B,3 B, [B,,B,]>[B,,B,] [B,,B,]>[B,,A,] | z2 D,2 C,2 B,,3/2 || [A,,A,]/ | %14
w: ~ ~ ~ ~ ~ ~|~ ~ ~||
 [A,,A,]4 [A,,E,]3 [A,,C]/ | C3 B,/ A,3 A,/ x/ | %16
w: ~ ~ ~|~ might- y God!|
 [E,B,]>[E,=A,] [E,B,]>[E,A,] [E,B,]>[E,A,] [E,B,]>[E,G,] | [A,,A,]>[A,,A,] [A,,A,]>[A,,A,] | %18
w: ||
 [A,,A,]>[A,,E,] [A,,E,]>[A,,A,] | [A,,A,]4 [A,,E,]3 [A,,C]/ | (C3 B,/) A,3 A,/ x/ | %21
w: |||
 [D,A,]>[D,A,] [D,A,][D,A,] [E,A,]2 [E,D]2 | [A,,C]6 z |] %23
w: ||
V:4
 x | x8 | A,2 A,2 A,3 A, | x8 | x8 | x8 | x2 A,2 A,3 x | x8 | x8 | x8 | x8 | B,3 B, x4 | %12
w: ||~ ~ ~ ~||||~ ~|||||~ ~|
 [E,G,]6 x3/2 || x/ | x15/2 | A,4 A,3 A,/ | x8 | x4 | x4 | x15/2 | A,4 A,3 A,/ | x8 | x7 |] %23
w: ~|||||||||||

